X:205
T:Hop The Fence
C:Chris Thile
N:TablEdited by Trace W Curry
L:1/8
Q:1/4=200
M:4/4
K:D
z6 DA |: af ea fe df | ed Be dB Ae | af ea fe df | ed BA Be eA | af ea fe df | 
ed Be dB Ae | (3ABc d2 dB FB | {B}AF EG FD DA :|: Bc d2 dB FB | {B}AF EG FE DF | 
AB de fe dB | Aa fd ed cd | Bc d2 dB FB | {B}AF EG FE DF | AB de fe dB | Aa ec d2 DA :| 
 

